X:1
T:Polsk
T:(Totakt-pols, nr. JM-247)
S:efter J Mortensen
O:Svendborg amt, Danmark
R:Totakt-pols
Z:ABC-transkribering av Åke Persson
M:2/4
L:1/8
K:A
|: efg | agag | aecA | agag | aecA | fefg | aecA | B2 dB | A :|
|: z EG | BEBE | BEcE | dEcE | BEcE | cEcE | BEcE | dB GE | A :|

